src/icons/youtube.svg

<svg width="20" height="16" viewBox="0 0 20 16" fill="none" xmlns="http://www.w3.org/2000/svg">
<path d="M19.4682 3.15364C19.2404 2.29061 18.5734 1.61015 17.7275 1.3778C16.1819 0.946289 9.99994 0.946289 9.99994 0.946289C9.99994 0.946289 3.81794 0.946289 2.27243 1.3612C1.44274 1.59356 0.759469 2.29061 0.531711 3.15364C0.125 4.73032 0.125 7.99985 0.125 7.99985C0.125 7.99985 0.125 11.286 0.531711 12.8461C0.759469 13.7091 1.42648 14.3895 2.27243 14.6219C3.8342 15.0534 9.99994 15.0534 9.99994 15.0534C9.99994 15.0534 16.1819 15.0534 17.7275 14.6385C18.5734 14.4061 19.2404 13.7257 19.4682 12.8627C19.8749 11.286 19.8749 8.01645 19.8749 8.01645C19.8749 8.01645 19.8912 4.73032 19.4682 3.15364Z" fill="#2F354D"/>
<path d="M8.58984 10.8211L12.822 7.99965L8.58984 5.17822V10.8211Z" fill="white"/>
</svg>

<svg width="20" height="16" fill="none" xmlns="http://www.w3.org/2000/svg"><path d="M19.468 3.154a2.5 2.5 0 0 0-1.74-1.776C16.181.946 10 .946 10 .946s-6.182 0-7.728.415c-.83.233-1.513.93-1.74 1.793C.125 4.73.125 8 .125 8s0 3.286.407 4.846a2.5 2.5 0 0 0 1.74 1.776c1.562.431 7.728.431 7.728.431s6.182 0 7.727-.415a2.5 2.5 0 0 0 1.741-1.775c.407-1.577.407-4.847.407-4.847s.016-3.286-.407-4.862z
  M8.59 10.821 12.822 8 8.59 5.178v5.643z" fill="#2F354D" fill-rule="evenodd" /></svg>
